X:1
T:Title
%%score { 1 | ( 2 3 ) }
L:1/8
M:4/4
K:Eb
V:1 treble nm="Grand Piano"
V:2 bass 
V:3 bass 
V:1
 z4 z2[Q:1/4=100] G2 | G3 G FFEE | A4 G2 [CF]2 | EEEE D2 EF | E6 B2 | B3 B AAGG | c4 B2 [EG]2 | %7
 =AAGF A2 Bc |[M:3/4] [B,DB]6 |[M:1/4] B2 |[M:4/4] [Ge]3 [B,GB] [B,GB][B,GB][B,FA][B,EG] | %11
 [B,DB]2 [B,DF]4 B2 | [df]3 [ce] [Bd][Ac][GB][FA] | G6 G2 | G3 [EG] [EA][EA][_DB][DB] | %15
 [Cc]4 [CA]2 [CF]2 | EEEE D2 EF |[M:3/4] E4 z2 |] %18
V:2
 z4 z2 [E,B,E]2 | [E,B,E]3 [E,B,E] [E,A,E][E,A,E][E,G,][E,G,] | [E,CE]4 [E,B,E]2 [A,,A,]2 | %3
 z4 z2 .G,2 | [E,G,B,]6 [E,G,E]2 | [E,G,E]3 [E,G,E] [E,CE][E,CE][E,B,E][E,B,E] | %6
 [E,A,E]4 [E,G,E]2 [C,C]2 | [F,CE][F,CE][F,B,E][F,=A,E] [F,CE]2 [F,E]-[F,A,E] |[M:3/4] B,,6 | %9
[M:1/4] B,2 |[M:4/4] [E,B,]3 E, E,E,D,E, | B,,2 B,,4 B,2 | %12
 [B,,B,]3 [B,,B,] [B,,B,][B,,B,][C,B,][D,B,] | [E,B,E]6 [E,B,E]2 | %14
 [E,B,E]3 [_D,B,] [C,A,][C,A,][B,,G,][B,,G,] | [A,,A,]4 [A,,F,]2 [A,,A,]2 | z4 z2 .G,2 | %17
[M:3/4] [E,G,B,]4 z2 |] %18
V:3
 x8 | x8 | x8 | [B,,G,B,][B,,G,B,][B,,G,B,][B,,G,B,] [B,,F,B,]2 [B,,B,]-[B,,A,B,] | x8 | x8 | x8 | %7
 z4 z2 .B,2 |[M:3/4] x6 |[M:1/4] x2 |[M:4/4] x8 | x8 | x8 | x8 | x8 | x8 | %16
 [B,,G,B,][B,,G,B,][B,,G,B,][B,,G,B,] [B,,F,B,]2 [B,,B,]-[B,,A,B,] |[M:3/4] x6 |] %18

